X:14255
T:Richard Twomey's
C:Richard Twomey
S:irtrad-l, 8/94
Z:From John Walsh
Z:Richard Twomey is a fiddler from Seattle. Conor
Z:Byrnes calls it "Twomey's #9"
Z:"Y" means "pop the following note"
Z:You'll have to delete the Y's to get it to play with playabc.
I:speed 350
R:reel
E:7
M:C|
K:G
gedg edBA|GEED ~E3 F|~G3 A ~B3 c|d2 eB dB ~B2|\
gedg edBA|GEED ~E3 F|~G3 A ~B3 c|dBAc BG ~G2:|
gBBA ~B2 YgB|B2 YgB YgB~B2|~c3 d ~e3 f|g2 ba ge ~e2|\
gBBA ~B2 YgB|B2 YgB YgB~B2|~c3 d ~e3 f|gedc BG ~G2:|
